X:1
T:Schäfers Klagelied D 121 (1814)
T:Schäfers Klagelied D 121 (1814)
T:Franz Peter Schubert (1797 - 1828)
T:Johann Wolfgang von Goethe (1749 - 1832)
C:Franz Peter Schubert (1797 - 1828)
Z:Johann Wolfgang von Goethe (1749 - 1832)
%%score 1 { ( 2 4 5 ) | ( 3 6 7 ) }
L:1/8
Q:1/4=84
M:6/8
K:G
V:1 treble nm="Voice"
V:2 treble nm="Piano"
V:4 treble 
V:5 treble 
V:3 bass 
V:6 bass 
V:7 bass 
V:1
"^Mäßig" B |[Q:1/4=88] B>cB (B>c)B | e3 B2 e | ^d2 e (f>e)d |[Q:1/4=84] e2 e[Q:1/4=88] (e>=f)e | %5
w: Da|dro- ben auf je- * nem|Ber- ge, da|steh ich tau- * send-|mal, an mei- * nem|
 e2 c (c>d)e | (B2 d/c/)[Q:1/4=84] B2 e |[Q:1/4=88] e>dc B>AF | E2 z z2 z | z6 | z2 z z2 d | %11
w: Sta- be hin- * ge-|bo- * * gen, und|schau- e hin- ab in das|Tal.||Dann|
 dBA G>AG | e3 d2 B | AAB c>dc | B3 z2 d | (dB)A G>AG | e3 d3 | z2 z z2 d | d2 B f>e^c | B3 z2 z | %20
w: folg ich der wei- den- den|Her- de, mein|Hünd- chen be- wah- ret mir|sie. Ich|bin _ her- un- ter ge-|kom- men|und|weiß doch sel- ber nicht|wie.|
 z2 z z2 d | (e>g)c (e>g)c | =f3{gf} e z c | (e>g)c (e>g)c | =f>dB c2 c | =f>cc cf_a | %26
w: Da|steht _ von schö- * nen|Blu- men, da|steht _ die gan- * ze|Wie- se so voll, ich|bre- che sie, oh- ne zu|
[Q:1/4=86]{_a} g2[Q:1/4=84] g"^ritardando"[Q:1/4=78] ggg | g3-[Q:1/4=74] g2 B | %28
w: wis- sen, wem ich sie|ge- * ben|
[Q:1/4=70] c2 z z2 c[Q:1/4=88] | _e2 c e>=fg | g3 c2 _e | _e2 _B _a>=fd | _e2 z z2 z | %33
w: soll. Und|Re- gen, Sturm und Ge-|wit- ter ver-|pass ich un- ter dem|Baum.|
[Q:1/4=76] z2 z z2 _e |[Q:1/4=72] _e>=fe d>ed |[Q:1/4=64]{d} ^cc z z2 c | d>^cd _e>dc | %37
w: Die|Tü- re dort blei- bet ver-|schlos- sen, doch|al- les ist lei- der ein|
 d2 z[Q:1/4=60] z2 z | z2 z !fermata!z2[Q:1/4=84] d |[Q:1/4=88] d>=BA (G>A)G | =e3 d2 B | %41
w: Traum.|Es|ste- het ein Re- * gen-|bo- gen wohl|
 A2 B (c>d)c | B3 z2 d | d>BA (G>A)G | e3 d2 d | f>ed (^ce)^A | B2 z z2 z | z2 z z2 B | %48
w: ü- ber je- * nem|Haus, sie|a- ber ist fort- * ge-|zo- gen, und|weit in das Land _ hin-|aus.|Hin-|
 B>cB (B>c)B | e3 B2 e | ^d2 e f>ed | e2 e e>=fe | e2 c (c>d)e | (B2 d/c/) B2 e | e>dc (Bd)c | %55
w: aus in das Land _ und|wei- ter, viel-|leicht gar ü- ber die|See. Vor- ü- ber, ihr|Scha- fe, nur _ vor-|ü- * * ber, dem|Schä- fer ist gar _ so|
 B2 B e>=fe | e2 c (e>=f)e | (e2 c) A2 c |[Q:1/4=86] B>AG[Q:1/4=82] (FA>)G | E2 z z2 z | %60
w: weh, vor- ü- ber, ihr|Scha- fe, nur _ vor-|ü- * ber, dem|Schä- fer ist gar _ so|weh.|
[Q:1/4=76] z6[Q:1/4=68][Q:1/4=60][Q:1/4=50] | z3 !fermata!z2 |] %62
w: ||
V:2
 z |!pp!!<(! [B,EG]2 [B,EG] [B,EG]2 [B,EG]!<)! | !>![B,EG]3- [B,EG]2!p! [B,EG] | %3
 [A,CF]2 [A,CE] ^D>EF | [B,EG]3 z .[^G,B,=DE].[G,B,DE] | [A,CE]3 z .[A,CE].[A,CE] | %6
 [G,B,E]3- [G,B,E]2 z | [CEF]2 z [A,B,^DF]2 z | [G,B,E]3- [G,B,E]2 [B,EG] | F6 | %10
 !arpeggio![B,DG]6 |!p! B,DG B,^DG | CEG B,=DG | CDF A,DF | B,DG B,DG | B,DG B,DG | CEG (B,DG | %17
 B,DF B,D^E) | B,DF ^A,^CF | x6 | G6 | .C/(E/G/c/G/E/) z/ (E/G/c/G/E/) | %22
 z/ (D/G/B/G/D/) z/ (E/G/c/G/E/) | z/"_simile" E/G/c/G/E/ z/ E/G/c/G/E/ | %24
 z/ D/G/B/G/D/ z/ E/G/c/G/E/ | z/ C/=F/A/F/C/ z/ C/_A/F/C/F/ | z/ =E/G/c/G/E/ z/ _E/^F/c/F/E/ | %27
 z/ D/=F/c/F/D/ z/ D/F/B/F/D/ | %28
 z/ [_EGc]/[EGc]/[EGc]/[EGc]/[EGc]/ [EGc]/[EGc]/[EGc]/[EGc]/[EGc]/[EGc]/ | %29
 z/ [_EGc]/[EGc]/[EGc]/[EGc]/[EGc]/ [EGc]/[EGc]/[EGc]/[EGc]/[EGc]/[EGc]/ | %30
 z/ [_EGc]/[EGc]/[EGc]/[EGc]/[EGc]/ [EGc]/[EGc]/[EGc]/[EGc]/[EGc]/[EGc]/ | %31
 z/ [_EG_B]/[EGB]/[EGB]/[EGB]/[EGB]/ [D=F_AB]/[DFAB]/[DFAB]/[DFAB]/[DFAB]/[DFAB]/ | %32
 z/ [_EG_B]/[EGB]/[EGB]/[EGB]/[EGB]/ [EGB]/[EGB]/[EGB]/[EGB]/[EGB]/[EGB]/ |!pp! [_EG_B]6 | %34
 (_e3 d3 | ^c4) x2 | [FAd]3 [G_B^c]3 | [FAd]3 _e>d^c | [FAd]3- !fermata![FAd]2 z |!p! =B,DG B,DG | %40
 CEG B,DG | CDF A,DF | B,DG B,DG | B,DG B,DG | CEG B,DB | DFB ^A=GE | DFB DFB- | B6 | %48
!pp!!<(! [B,EG]2 [B,EG] [B,EG]2 [B,EG]!<)! | !>![B,EG]3- [B,EG]2!p! [B,EG] | [A,CF]2 [A,CE] ^D>EF | %51
 [B,EG]3 z .[^G,B,=DE].[G,B,DE] | [A,CE]3 z .[A,CE].[A,CE] | [=G,B,E]3- [G,B,E]2 z | %54
 ([CEA]3 [B,DG]2 [A,CF] | [G,B,G]2) z z .[B,DE^G].[B,DEG] | [CEA]3 z .[DE^GB].[DEGB] | %57
 [CEAc]3- [CEAc]2 z | [B,EG]2 z [A,B,^DF]2 z | (E2 E e>dc | B2 G FA>G) | E3- !fermata!E2 |] %62
V:3
 z | E,2 E, E,2 E, | E,3- E,2 E, | E,2 E, E,2 E, | E,3 z .[E,,E,].[E,,E,] | [A,,E,]3 z .A,,.C, | %6
 [E,,E,]3- [E,,E,]2 z | A,,2 z B,,2 z | [E,,E,]3- [E,,E,]2 E, | (C,2 ^C, D,3) | %10
 !arpeggio![G,,D,G,]6 | [G,,G,]6 | [G,,G,]6 | [G,,G,]6 | [G,,G,]6 | [G,,G,]6 | [G,,G,]6- | %17
 [G,,G,]6 | [F,,F,]6 | ([B,,F,]6 | [G,,G,]6) | .C,.C z .C,.C z | .C,.C z .C,.C z | %23
 .C,.C z .C,.C z | .C,.C z .C,.C z | .=F,,.=F, z .F,,.F, z | .G,,.G, z .G,,.G, z | %27
 .G,,.G, z .G,,.G, z | [C,,C,]6 | [C,,C,]6 | [C,,C,]6 | [_E,,_E,]6 | [_E,,_E,]6- | [E,,E,]6 | x6 | %35
 x6 | x6 | x6 | x4 x z | [G,,G,]6 | [G,,G,]6 | [G,,G,]6 | [G,,G,]6 | [G,,G,]6 | [G,,G,]6 | %45
 [F,,F,]6 | ([B,,-F,]6 | [B,,B,]6) | E,2 E, E,2 E, | E,3- E,2 E, | E,2 E, E,2 E, | %51
 E,2 z z .[E,,E,].[E,,E,] | [A,,E,]3 z .A,,.C, | E,3- E,2 z | (C,3 D,2 ^D, | %55
 E,2) z z .[E,,E,].[E,,E,] | [A,,E,]3 z .[E,,E,].[E,,E,] | [A,,E,]3- [A,,E,]2 z | B,,2 z B,,2 z | %59
 ([G,B,]2 [^G,D] C2 ^D | =G,2 B, C2 B,) | B,3- !fermata!B,2 |] %62
V:4
 x | x6 | x6 | x3 [A,C]2 [A,C] | x6 | x6 | x6 | x6 | x6 | A,6 | x6 | x6 | x6 | x6 | x6 | x6 | x6 | %17
 x6 | x6 | (B,DF B,DF | =FDB, FDB,) | x6 | x6 | x6 | x6 | x6 | x6 | x6 | x6 | x6 | x6 | x6 | x6 | %33
 x6 | [_E-G-_B]6 | [EG]6 | D6- | D6- | D3- !fermata!D2 x | x6 | x6 | x6 | x6 | x6 | x6 | x6 | x6 | %47
 ^DFA DFA | x6 | x6 | x3 [A,C]2 [A,C] | x6 | x6 | x6 | x6 | x6 | x6 | x6 | x6 | x6 | E3 !>!^D3 | %61
 E3- !fermata!E2 |] %62
V:5
 x | x6 | x6 | x6 | x6 | x6 | x6 | x6 | x6 | E3- (EDC) | x6 | x6 | x6 | x6 | x6 | x6 | x6 | x6 | %18
 x6 | x6 | x6 | x6 | x6 | x6 | x6 | x6 | x6 | x6 | x6 | x6 | x6 | x6 | x6 | x6 | x6 | (_B3 A3) | %36
 x6 | x3 [G_B]3 | x6 | x6 | x6 | x6 | x6 | x6 | x6 | x6 | x6 | x6 | x6 | x6 | x6 | x6 | x6 | x6 | %54
 x6 | x6 | x6 | x6 | x6 | x6 | x6 | x5 |] %62
V:6
 x | x6 | x6 | x6 | x6 | x6 | x6 | x6 | x6 | x6 | x6 | x6 | x6 | x6 | x6 | x6 | x6 | x6 | x6 | x6 | %20
 x6 | x6 | x6 | x6 | x6 | x6 | x6 | x6 | x6 | x6 | x6 | x6 | x6 | x6 | x6 | x6 | x6 | x6 | x6 | %39
 x6 | x6 | x6 | x6 | x6 | x6 | x6 | x6 | x6 | x6 | x6 | x6 | x6 | x6 | x6 | x6 | x6 | x6 | x6 | %58
 x6 | E,6- | E,3 [E,A,]3 | [E,G,]3- !fermata![E,G,]2 |] %62
V:7
 x | x6 | x6 | x6 | x6 | x6 | x6 | x6 | x6 | x6 | x6 | x6 | x6 | x6 | x6 | x6 | x6 | x6 | x6 | x6 | %20
 x6 | x6 | x6 | x6 | x6 | x6 | x6 | x6 | x6 | x6 | x6 | x6 | x6 | x6 | x6 | x6 | x6 | x6 | x6 | %39
 x6 | x6 | x6 | x6 | x6 | x6 | x6 | x6 | x6 | x6 | x6 | x6 | x6 | x6 | x6 | x6 | x6 | x6 | x6 | %58
 x6 | x3 A,3 | x6 | x5 |] %62

